**kern	**kern	**dynam
*part1	*part1	*part1
*staff2	*staff1	*
*I"Piano	*	*
*clefF4	*clefG2	*
*k[f#c#g#]	*k[f#c#g#]	*
=1	=1	=1
8g#L	8ddL	.
8b	8ff#	.
!	!LO:TX:b:i:t=dim.	!
8g#	8dd	.
8bJ	8ff#J	.
8g#L	8ddL	.
8bJ	8ff#J	.
=	=	=
8g#L	8ddL	.
8b	8ffn	.
8g#	8dd	.
8bJ	8ffJ	.
8g#L	8ddL	.
8bJ	8ffJ	.
=	=	=
8g#L	8ddL	.
8b	8ee	.
8g#	8dd	.
8bJ	8eeJ	.
8g#L	8ddL	.
8bJ)	8eeJ)	.
=	=	=
(8G#L	(8dL	pp
8B	8fn	.
8G#	8d	.
8BJ	8fJ	.
8G#L	8dL	.
8BJ	8fJ	.
=	=	=
!	!LO:TX:b:i:t=rit.	!
8G#L	8dL	.
8B	8fn	.
8G#	8d	.
8BJ	8fJ	.
8G#L	8dL	.
8BJ)	8fJ)	.
=	=	=
(8G#L	(8dL	.
8B	8e	.
8G#	8d	.
8BJ	8eJ	.
8G#L	8dL	.
8BJ	8eJ	.
=	=	=
8G#L	8dL	.
8B	8e	.
8G#	8d	.
8BJ	8eJ	.
8G#L	8dL	.
8BJ)	8eJ)	.
=||	=||	=||
*-	*-	*-
!!!system-decoration: {(s1,s2)}
